X:344
T:Dance To Your Daddy
M:3/4
L:1/8
K:G
g2 ge dB | Aa ag fd | g2 ge dB | dg gf g2 | 
g2 ge dB | Aa ag fd | g2 ge dB | dg gf g2 || 
b2 ba bd' | a2 ag fa | b2 ba bd' | dg gf g2 | 
b2 ba bd' | a2 ag fa | b2 ba bd' | dg gf g2 || 

